X:004
L:1/8
M:6/8
K:F
b | agf gfe | fcA F2 b | agf gBA | {/c}B>AB G2 b |
agf gfe | fed cBA | Bdg Acf | {/f}ede f2 :|]

